Luv/actions/22/system-run.svg

<?xml version="1.0" encoding="UTF-8" standalone="no"?>
<!-- Created with Inkscape (http://www.inkscape.org/) -->

<svg
   xmlns:dc="http://purl.org/dc/elements/1.1/"
   xmlns:cc="http://creativecommons.org/ns#"
   xmlns:rdf="http://www.w3.org/1999/02/22-rdf-syntax-ns#"
   xmlns:svg="http://www.w3.org/2000/svg"
   xmlns="http://www.w3.org/2000/svg"
   xmlns:sodipodi="http://sodipodi.sourceforge.net/DTD/sodipodi-0.dtd"
   xmlns:inkscape="http://www.inkscape.org/namespaces/inkscape"
   width="22"
   height="22"
   viewBox="0 0 22 22"
   id="svg2"
   version="1.1"
   inkscape:version="0.92.3 (unknown)"
   sodipodi:docname="system-run.svg">
  <defs
     id="defs3051">
    <style
       type="text/css"
       id="current-color-scheme">
    .ColorScheme-Text {
    color:#4d4d4d;
    }
    </style>
  </defs>
  <sodipodi:namedview
     id="base"
     pagecolor="#ffffff"
     bordercolor="#666666"
     borderopacity="1.0"
     inkscape:pageopacity="0.0"
     inkscape:pageshadow="2"
     inkscape:zoom="5.6568542"
     inkscape:cx="26.081119"
     inkscape:cy="20.332537"
     inkscape:document-units="px"
     inkscape:current-layer="layer1"
     showgrid="true"
     units="px"
     inkscape:showpageshadow="false"
     borderlayer="true"
     showguides="true"
     inkscape:guide-bbox="true"
     inkscape:window-width="2560"
     inkscape:window-height="1384"
     inkscape:window-x="0"
     inkscape:window-y="32"
     inkscape:window-maximized="1">
    <inkscape:grid
       type="xygrid"
       id="grid4136"
       empspacing="2" />
    <sodipodi:guide
       position="0,20"
       orientation="0,1"
       id="guide4140"
       inkscape:label="Icon Max Height"
       inkscape:color="rgb(233,30,99)"
       inkscape:locked="false" />
    <sodipodi:guide
       position="0,2"
       orientation="0,1"
       id="guide4142"
       inkscape:label="Icon Baseline"
       inkscape:color="rgb(233,30,99)"
       inkscape:locked="false" />
    <sodipodi:guide
       position="11,0"
       orientation="1,0"
       id="guide4144"
       inkscape:label="Center Vertical"
       inkscape:color="rgb(221,44,0)"
       inkscape:locked="false" />
    <sodipodi:guide
       position="15,11"
       orientation="0,1"
       id="guide4146"
       inkscape:label="Center Horizontal"
       inkscape:color="rgb(221,44,0)"
       inkscape:locked="false" />
  </sodipodi:namedview>
  <metadata
     id="metadata7">
    <rdf:RDF>
      <cc:Work
         rdf:about="">
        <dc:format>image/svg+xml</dc:format>
        <dc:type
           rdf:resource="http://purl.org/dc/dcmitype/StillImage" />
        <dc:title />
      </cc:Work>
    </rdf:RDF>
  </metadata>
  <g
     inkscape:label="Capa 1"
     inkscape:groupmode="layer"
     id="layer1"
     transform="translate(0,-1030.3622)">
    <path
       style="fill:currentColor;fill-opacity:1;stroke:none" class="ColorScheme-Text"
       d="M 3,2 C 1.8918551,2 1,2.8918551 1,4 v 14 c 0,1.108145 0.8918551,2 2,2 h 9 V 18 H 8 3 V 6 h 9 5 2 v 4 2 h 2 V 10 4 C 21,2.8919904 20.10801,2 19,2 H 17 14 12 5.0996094 Z M 4,3 C 4.5522847,3 5,3.4477153 5,4 5,4.5522847 4.5522847,5 4,5 3.4477153,5 3,4.5522847 3,4 3,3.4477153 3.4477153,3 4,3 Z m 11.943555,9.001953 C 15.414236,12.031953 15.000455,12.47 15.000196,13 v 5.998047 c -2.53e-4,0.8238 0.940027,1.294581 1.599609,0.800781 l 4,-3 c 0.532953,-0.4 0.532953,-1.199509 0,-1.599609 l -4,-2.998047 c -0.188457,-0.1417 -0.420831,-0.212119 -0.65625,-0.199219 z"
       transform="translate(0,1030.3622)"
       id="path826"
       inkscape:connector-curvature="0"
       sodipodi:nodetypes="ssssccccccccccccssccccsssssscccccccc" />
  </g>
</svg>

<?xml version="1.0" encoding="UTF-8" standalone="no"?>
<!-- Created with Inkscape (http://www.inkscape.org/) -->

<svg
   xmlns:dc="http://purl.org/dc/elements/1.1/"
   xmlns:cc="http://creativecommons.org/ns#"
   xmlns:rdf="http://www.w3.org/1999/02/22-rdf-syntax-ns#"
   xmlns:svg="http://www.w3.org/2000/svg"
   xmlns="http://www.w3.org/2000/svg"
   xmlns:sodipodi="http://sodipodi.sourceforge.net/DTD/sodipodi-0.dtd"
   xmlns:inkscape="http://www.inkscape.org/namespaces/inkscape"
   width="22"
   height="22"
   viewBox="0 0 22 22"
   id="svg2"
   version="1.1"
   inkscape:version="0.92.3 (unknown)"
   sodipodi:docname="system-run.svg">
  <defs
     id="defs3051">
    <style
       type="text/css"
       id="current-color-scheme">
    .ColorScheme-Text {
    color:#4d4d4d;
    }
    </style>
  </defs>
  <sodipodi:namedview
     id="base"
     pagecolor="#ffffff"
     bordercolor="#666666"
     borderopacity="1.0"
     inkscape:pageopacity="0.0"
     inkscape:pageshadow="2"
     inkscape:zoom="45.254834"
     inkscape:cx="12.330118"
     inkscape:cy="11.106554"
     inkscape:document-units="px"
     inkscape:current-layer="layer1"
     showgrid="true"
     units="px"
     inkscape:showpageshadow="false"
     borderlayer="true"
     showguides="true"
     inkscape:guide-bbox="true"
     inkscape:window-width="2560"
     inkscape:window-height="1384"
     inkscape:window-x="0"
     inkscape:window-y="32"
     inkscape:window-maximized="1">
    <inkscape:grid
       type="xygrid"
       id="grid4136"
       empspacing="2" />
    <sodipodi:guide
       position="0,20"
       orientation="0,1"
       id="guide4140"
       inkscape:label="Icon Max Height"
       inkscape:color="rgb(233,30,99)"
       inkscape:locked="false" />
    <sodipodi:guide
       position="0,2"
       orientation="0,1"
       id="guide4142"
       inkscape:label="Icon Baseline"
       inkscape:color="rgb(233,30,99)"
       inkscape:locked="false" />
    <sodipodi:guide
       position="11,0"
       orientation="1,0"
       id="guide4144"
       inkscape:label="Center Vertical"
       inkscape:color="rgb(221,44,0)"
       inkscape:locked="false" />
    <sodipodi:guide
       position="15,11"
       orientation="0,1"
       id="guide4146"
       inkscape:label="Center Horizontal"
       inkscape:color="rgb(221,44,0)"
       inkscape:locked="false" />
  </sodipodi:namedview>
  <metadata
     id="metadata7">
    <rdf:RDF>
      <cc:Work
         rdf:about="">
        <dc:format>image/svg+xml</dc:format>
        <dc:type
           rdf:resource="http://purl.org/dc/dcmitype/StillImage" />
        <dc:title />
      </cc:Work>
    </rdf:RDF>
  </metadata>
  <g
     inkscape:label="Capa 1"
     inkscape:groupmode="layer"
     id="layer1"
     transform="translate(0,-1030.3622)">
    <path
       style="fill:currentColor;fill-opacity:1;stroke:none" class="ColorScheme-Text"
       d="M 3 2 C 1.8918551 2 1 2.8918551 1 4 L 1 18 C 1 19.108145 1.8918551 20 3 20 L 12 20 L 12 18 L 8 18 L 3 18 L 3 6 L 12 6 L 17 6 L 19 6 L 19 10 L 19 12 L 21 12 L 21 10 L 21 4 C 21 2.8919904 20.10801 2 19 2 L 17 2 L 14 2 L 12 2 L 5.0996094 2 L 3 2 z M 4 3 A 1 1 0 0 1 5 4 A 1 1 0 0 1 4 5 A 1 1 0 0 1 3 4 A 1 1 0 0 1 4 3 z M 14.943359 12.001953 C 14.41404 12.031953 14.000259 12.47 14 13 L 14 18.998047 C 13.999747 19.821847 14.940027 20.292628 15.599609 19.798828 L 19.599609 16.798828 C 20.132562 16.398828 20.132562 15.599319 19.599609 15.199219 L 15.599609 12.201172 C 15.411152 12.059472 15.178778 11.989053 14.943359 12.001953 z "
       transform="translate(0,1030.3622)"
       id="path826" />
  </g>
</svg>
